img/icons/mime/large/wav.svg

<svg height="140.9" width="125.3" xmlns="http://www.w3.org/2000/svg" xmlns:xlink="http://www.w3.org/1999/xlink"><linearGradient id="a" gradientTransform="matrix(.939922 0 0 .896911 -12.081733 -3.352424)" gradientUnits="userSpaceOnUse" x1="24" x2="73" y1="16.4" y2="73.4"><stop offset="0" stop-color="#fff"/><stop offset="1" stop-color="#fff" stop-opacity="0"/></linearGradient><linearGradient id="b" gradientTransform="matrix(.919657 0 0 1.058706 1.338192 1.084837)" gradientUnits="userSpaceOnUse" x1="111.3" x2="107.3" y1="124.3" y2="93.7"><stop offset="0" stop-opacity=".7"/><stop offset="1" stop-opacity="0"/></linearGradient><rect fill="none" height="133.4" rx="22.9" stroke="#000" stroke-linejoin="round" stroke-opacity=".5" stroke-width="7.5" width="117.8" x="3.8" y="3.8"/><rect fill="#83a67f" height="133.4" rx="22.9" stroke="#000" stroke-width="3.8" width="117.8" x="3.6" y="3.7"/><path d="m100.3 132.6h-75.7c-11.6 0-17.3-5.7-17.3-17.4 0 0 27.6-66.5 110.4-76.6v76.6c0 11.7-5.7 17.4-17.4 17.4z" fill="#fff" fill-opacity=".3"/><g transform="matrix(.529753 0 0 .529753 20.520594 10.449884)"><g stroke="#000"><path d="m71.1 10.9c-21.2 1.4-43 25.2-51.5 58.1-9.8 37.6 1.5 73.1 25.2 79.1 6.3 1.6 12.7.9 19.1-1.5l60.4-29.5c5.6-5 12.8-6.5 16.2-17.7 3.4-11.3 1.3-17.2-3.2-25.3l-43.6-54.4c-3.9-3.8-8.5-6.6-13.6-7.9-3-.8-6-1.1-9-.9z" fill="#4b6983" stroke-linejoin="round" stroke-opacity=".5" stroke-width="3.8"/><path d="m92.9 20.6-27.6 124 58.7-28.2c6.8-4.7 12.4-6.3 15.7-17.2 3.3-10.8 1.3-16.6-3.1-24.5z" fill="#7590ae" stroke-linejoin="round" stroke-width="2.5"/><path d="m145.3 78.5a44.3 70.9 0 1 1 -88.6 0 44.3 70.9 0 1 1 88.6 0z" fill="#9db8d2" stroke-width="2.6" transform="matrix(.939421 .239581 -.241243 .932955 -13.93465 -17.0418)"/><path d="m131.1 85.6a28.3 56.7 0 1 1 -56.7 0 28.3 56.7 0 1 1 56.7 0z" fill="#7590ae" stroke-opacity=".5" stroke-width="3.4" transform="matrix(1.131177 .288486 -.265628 1.027252 -33.1397 -37.83387)"/><path d="m131.1 85.6a28.3 56.7 0 1 1 -56.7 0 28.3 56.7 0 1 1 56.7 0z" fill="#7590ae" stroke-width="2.3" transform="matrix(1.131177 .288486 -.265628 1.027252 -33.1397 -37.83387)"/></g><path d="m62 23.5s4.6 19.3 5.6 42.9c.9 23.6-5.1 29.9-7.4 34.3s-7.8 18.9-22.4 32.4c11.7 9.7 42.6 5.6 55.5-55.8 4.9-39-10.9-62.2-31.3-53.8z" fill="#fff" fill-opacity=".5"/><path d="m46.1 51.9a12.4 19.5 0 1 1 -24.8 0 12.4 19.5 0 1 1 24.8 0z" fill="#314e6c" stroke="#000" stroke-opacity=".5" stroke-width="4.5" transform="matrix(.939421 .239581 -.276433 1.069045 58.67646 19.94617)"/><path d="m46.1 51.9a12.4 19.5 0 1 1 -24.8 0 12.4 19.5 0 1 1 24.8 0z" fill="#314e6c" stroke="#000" transform="matrix(.939421 .239581 -.276433 1.069045 58.67646 19.94617)"/><path d="m145.3 78.5a44.3 70.9 0 1 1 -88.6 0 44.3 70.9 0 1 1 88.6 0z" fill="none" stroke="#000" stroke-opacity=".5" stroke-width="3.9" transform="matrix(.939421 .239581 -.241243 .932955 -13.93465 -17.0418)"/><path d="m60.8 21.1c-21.1-2.9-64 74.1-25.7 115.2-29.5-35.3-3.3-106.6 25.7-115.2zm9.8 81.7c-13.7-12.4.3-39 8.7-38.3-14.9 16.9-1.3 33.1-8.7 38.3z" fill="#fff"/><path d="m98.3 109.6-17.5 25.3c-3 4.2 48.6-16.3 57.1-33.1 4.5-16.9-28.6-29.2-28.6-29.2z" fill="url(#b)"/><path d="m65.5 141.4c21.1 3 65.2-76.4 26.9-119.3 26.3 38.5 1.3 106.1-26.9 119.3z" fill-opacity=".3"/><path d="m63.8 139.6c21 3 63.9-74 25.7-115.2 29.4 35.3 3.3 106.6-25.7 115.2z" fill-opacity=".3"/></g><path d="m82.8 95.5h6.8l8.3 21.3h.2l8.6-21.3h6.8l-12.8 27.4h-6.1zm-30.9 27.4 11.8-27.4h6l11.7 27.4h-6.3l-2.7-6.7h-11.4l-2.8 6.7zm14.8-20.7-4 9.7h8zm-56.1-6.7h6.4l4.1 20.3h.1l5.9-20.3h7l5.9 20.3h.1l4-20.3h6.4l-6.9 27.4h-7.1l-5.8-20.3h-.1l-6 20.3h-7z" fill="#fff"/><path d="m83.5 96.1h6.8l8.3 21.4h.2l8.5-21.4h6.8l-12.7 27.4h-6.1zm-30.9 27.4 11.7-27.4h6l11.8 27.4h-6.3l-2.7-6.6h-11.4l-2.8 6.6zm14.8-20.7-4.1 9.8h8zm-56.1-6.7h6.4l4 20.4h.2l5.9-20.4h7l5.8 20.4h.2l4-20.4h6.4l-7 27.4h-7l-5.8-20.2h-.2l-5.9 20.2h-7z"/><path d="m24.6 7.3h75.7c11.7 0 17.4 5.7 17.4 17.4 0 0-79.3.9-110.4 91.3v-91.3c0-10.3 7-17.4 17.3-17.4z" fill="url(#a)"/></svg>

<svg xmlns:svg="http://www.w3.org/2000/svg" xmlns="http://www.w3.org/2000/svg" xmlns:xlink="http://www.w3.org/1999/xlink" height="140.9" width="125.3" id="svg1" version="1">
<style>
.s0{
  stop-color:#46a046;
  stop-opacity:1;
}
.s1{
  stop-color:#df421e;
  stop-opacity:1;
}
.s2{
  stop-color:#ada7c8;
  stop-opacity:1;
}
.s3{
  stop-color:#eed680;
  stop-opacity:1;
}
.s4{
  fill:#fff;
}
.s5{
  fill-opacity:0.3;
  fill:#000;
}

</style>  <metadata id="metadata15"/>
  <defs id="defs3">
    <linearGradient id="linearGradient3587">
      <stop offset="0" id="stop3589" style="stop-color:#efe0cd;stop-opacity:0.6"/>
      <stop offset="1" id="stop3591" style="stop-color:#cececd;stop-opacity:0.2"/>
    </linearGradient>
    <linearGradient id="linearGradient2832">
      <stop id="stop2834" offset="0" style="stop-color:#ffffff;stop-opacity:1"/>
      <stop id="stop2836" offset="1" style="stop-color:#ffffff;stop-opacity:0"/>
    </linearGradient>
    <linearGradient id="linearGradient839">
      <stop id="stop840" offset="0" class="s0"/>
      <stop id="stop841" offset="0.4" class="s1"/>
      <stop id="stop842" offset="0.7" class="s2"/>
      <stop id="stop843" offset="1" class="s3"/>
    </linearGradient>
    <linearGradient y2="0.5" x2="1" y1="0.5" x1="0" id="linearGradient836" xlink:href="#linearGradient839"/>
    <linearGradient gradientUnits="userSpaceOnUse" y2="73.4" x2="73" y1="16.4" x1="24" gradientTransform="matrix(0.939922,0,0,0.896911,-12.081733,-3.3524237)" id="linearGradient2830" xlink:href="#linearGradient2832"/>
    <linearGradient xlink:href="#linearGradient1700" id="linearGradient1407" gradientUnits="userSpaceOnUse" gradientTransform="matrix(0.777129,0,0,0.894628,-162.4688,12.76856)" x1="111.3" y1="124.3" x2="107.3" y2="93.7"/>
    <linearGradient xlink:href="#linearGradient1700" id="linearGradient1390" gradientUnits="userSpaceOnUse" gradientTransform="matrix(0.777129,0,0,0.894628,-2.922179,10.43077)" x1="111.3" y1="124.3" x2="107.3" y2="93.7"/>
    <linearGradient id="linearGradient1350">
      <stop id="stop1352" offset="0" class="s0"/>
      <stop id="stop1354" offset="0.4" class="s1"/>
      <stop id="stop1356" offset="0.7" class="s2"/>
      <stop id="stop1358" offset="1" class="s3"/>
    </linearGradient>
    <linearGradient y2="0.5" x2="1" y1="0.5" x1="0" id="linearGradient1360" xlink:href="#linearGradient839"/>
    <linearGradient gradientUnits="userSpaceOnUse" y2="88" x2="128.7" y1="121.7" x1="123.5" gradientTransform="matrix(0.870364,0,0,1.001961,4.612015,4.886798)" id="linearGradient1362" xlink:href="#linearGradient1700"/>
    <linearGradient gradientUnits="userSpaceOnUse" y2="93.7" x2="107.3" y1="124.3" x1="111.3" gradientTransform="matrix(0.919657,0,0,1.058706,1.338192,1.084837)" id="linearGradient1703" xlink:href="#linearGradient1700"/>
    <linearGradient y2="0.5" x2="1" y1="0.5" x1="0" id="linearGradient1363" xlink:href="#linearGradient839"/>
    <linearGradient id="linearGradient1353">
      <stop id="stop1355" offset="0" class="s0"/>
      <stop id="stop1357" offset="0.4" class="s1"/>
      <stop id="stop1359" offset="0.7" class="s2"/>
      <stop id="stop1361" offset="1" class="s3"/>
    </linearGradient>
    <linearGradient id="linearGradient1700">
      <stop id="stop1701" offset="0" style="stop-color:#000000;stop-opacity:0.7"/>
      <stop id="stop1702" offset="1" style="stop-color:#000000;stop-opacity:0"/>
    </linearGradient>
    <linearGradient xlink:href="#linearGradient839" id="linearGradient1427" x1="0" y1="0.5" x2="1" y2="0.5"/>
    <linearGradient id="linearGradient1417">
      <stop offset="0" id="stop1419" class="s0"/>
      <stop offset="0.4" id="stop1421" class="s1"/>
      <stop offset="0.7" id="stop1423" class="s2"/>
      <stop offset="1" id="stop1425" class="s3"/>
    </linearGradient>
    <linearGradient y2="0.5" x2="1" y1="0.5" x1="0" id="linearGradient1384" xlink:href="#linearGradient839"/>
    <linearGradient id="linearGradient1374">
      <stop id="stop1376" offset="0" class="s0"/>
      <stop id="stop1378" offset="0.4" class="s1"/>
      <stop id="stop1380" offset="0.7" class="s2"/>
      <stop id="stop1382" offset="1" class="s3"/>
    </linearGradient>
    <linearGradient y2="0.5" x2="1" y1="0.5" x1="0" id="linearGradient2205" xlink:href="#linearGradient839"/>
    <linearGradient id="linearGradient2195">
      <stop id="stop2197" offset="0" class="s0"/>
      <stop id="stop2199" offset="0.4" class="s1"/>
      <stop id="stop2201" offset="0.7" class="s2"/>
      <stop id="stop2203" offset="1" class="s3"/>
    </linearGradient>
    <linearGradient y2="0.5" x2="1" y1="0.5" x1="0" id="linearGradient3025" xlink:href="#linearGradient839"/>
    <linearGradient id="linearGradient3015">
      <stop id="stop3017" offset="0" class="s0"/>
      <stop id="stop3019" offset="0.4" class="s1"/>
      <stop id="stop3021" offset="0.7" class="s2"/>
      <stop id="stop3023" offset="1" class="s3"/>
    </linearGradient>
    <linearGradient y2="0.5" x2="1" y1="0.5" x1="0" id="linearGradient3845" xlink:href="#linearGradient839"/>
    <linearGradient id="linearGradient3835">
      <stop id="stop3837" offset="0" class="s0"/>
      <stop id="stop3839" offset="0.4" class="s1"/>
      <stop id="stop3841" offset="0.7" class="s2"/>
      <stop id="stop3843" offset="1" class="s3"/>
    </linearGradient>
    <linearGradient y2="0.5" x2="1" y1="0.5" x1="0" id="linearGradient4665" xlink:href="#linearGradient839"/>
    <linearGradient id="linearGradient4655">
      <stop id="stop4657" offset="0" class="s0"/>
      <stop id="stop4659" offset="0.4" class="s1"/>
      <stop id="stop4661" offset="0.7" class="s2"/>
      <stop id="stop4663" offset="1" class="s3"/>
    </linearGradient>
    <linearGradient y2="0.5" x2="1" y1="0.5" x1="0" id="linearGradient5485" xlink:href="#linearGradient839"/>
    <linearGradient id="linearGradient5475">
      <stop id="stop5477" offset="0" class="s0"/>
      <stop id="stop5479" offset="0.4" class="s1"/>
      <stop id="stop5481" offset="0.7" class="s2"/>
      <stop id="stop5483" offset="1" class="s3"/>
    </linearGradient>
    <linearGradient y2="0.5" x2="1" y1="0.5" x1="0" id="linearGradient6305" xlink:href="#linearGradient839"/>
    <linearGradient id="linearGradient6295">
      <stop id="stop6297" offset="0" class="s0"/>
      <stop id="stop6299" offset="0.4" class="s1"/>
      <stop id="stop6301" offset="0.7" class="s2"/>
      <stop id="stop6303" offset="1" class="s3"/>
    </linearGradient>
    <linearGradient y2="0.5" x2="1" y1="0.5" x1="0" id="linearGradient7125" xlink:href="#linearGradient839"/>
    <linearGradient id="linearGradient7115">
      <stop id="stop7117" offset="0" class="s0"/>
      <stop id="stop7119" offset="0.4" class="s1"/>
      <stop id="stop7121" offset="0.7" class="s2"/>
      <stop id="stop7123" offset="1" class="s3"/>
    </linearGradient>
    <linearGradient xlink:href="#linearGradient839" id="linearGradient1432" x1="0" y1="0.5" x2="1" y2="0.5"/>
    <linearGradient id="linearGradient1422">
      <stop offset="0" id="stop1424" class="s0"/>
      <stop offset="0.4" id="stop1426" class="s1"/>
      <stop offset="0.7" id="stop1428" class="s2"/>
      <stop offset="1" id="stop1430" class="s3"/>
    </linearGradient>
    <linearGradient xlink:href="#linearGradient839" id="linearGradient2255" x1="0" y1="0.5" x2="1" y2="0.5"/>
    <linearGradient id="linearGradient2245">
      <stop offset="0" id="stop2247" class="s0"/>
      <stop offset="0.4" id="stop2249" class="s1"/>
      <stop offset="0.7" id="stop2251" class="s2"/>
      <stop offset="1" id="stop2253" class="s3"/>
    </linearGradient>
    <linearGradient xlink:href="#linearGradient839" id="linearGradient3075" x1="0" y1="0.5" x2="1" y2="0.5"/>
    <linearGradient id="linearGradient3065">
      <stop offset="0" id="stop3067" class="s0"/>
      <stop offset="0.4" id="stop3069" class="s1"/>
      <stop offset="0.7" id="stop3071" class="s2"/>
      <stop offset="1" id="stop3073" class="s3"/>
    </linearGradient>
    <linearGradient xlink:href="#linearGradient839" id="linearGradient3895" x1="0" y1="0.5" x2="1" y2="0.5"/>
    <linearGradient id="linearGradient3885">
      <stop offset="0" id="stop3887" class="s0"/>
      <stop offset="0.4" id="stop3889" class="s1"/>
      <stop offset="0.7" id="stop3891" class="s2"/>
      <stop offset="1" id="stop3893" class="s3"/>
    </linearGradient>
    <linearGradient xlink:href="#linearGradient839" id="linearGradient4715" x1="0" y1="0.5" x2="1" y2="0.5"/>
    <linearGradient id="linearGradient4705">
      <stop offset="0" id="stop4707" class="s0"/>
      <stop offset="0.4" id="stop4709" class="s1"/>
      <stop offset="0.7" id="stop4711" class="s2"/>
      <stop offset="1" id="stop4713" class="s3"/>
    </linearGradient>
    <linearGradient xlink:href="#linearGradient839" id="linearGradient5535" x1="0" y1="0.5" x2="1" y2="0.5"/>
    <linearGradient id="linearGradient5525">
      <stop offset="0" id="stop5527" class="s0"/>
      <stop offset="0.4" id="stop5529" class="s1"/>
      <stop offset="0.7" id="stop5531" class="s2"/>
      <stop offset="1" id="stop5533" class="s3"/>
    </linearGradient>
    <linearGradient xlink:href="#linearGradient839" id="linearGradient6355" x1="0" y1="0.5" x2="1" y2="0.5"/>
    <linearGradient id="linearGradient6345">
      <stop offset="0" id="stop6347" class="s0"/>
      <stop offset="0.4" id="stop6349" class="s1"/>
      <stop offset="0.7" id="stop6351" class="s2"/>
      <stop offset="1" id="stop6353" class="s3"/>
    </linearGradient>
  </defs>
  <rect rx="22.9" ry="22.9" y="3.8" x="3.8" height="133.4" width="117.8" id="rect834" style="fill:none;stroke-linejoin:round;stroke-opacity:0.5;stroke-width:7.5;stroke:#000"/>
  <rect rx="22.9" ry="22.9" y="3.7" x="3.6" height="133.4" width="117.8" id="rect828" style="fill:#83a67f;stroke-width:3.8;stroke:#000"/>
  <path id="path2838" d="M100.3 132.6L24.6 132.6C13 132.6 7.3 126.9 7.3 115.2 7.3 115.2 34.9 48.7 117.7 38.6L117.7 115.2C117.7 126.9 112 132.6 100.3 132.6z" style="fill-opacity:0.3;fill:#fff"/>
  <g id="g1375" transform="matrix(0.529753,0,0,0.529753,20.520594,10.449884)">
    <path d="M71.1 10.9C49.9 12.3 28.1 36.1 19.6 69 9.8 106.6 21.1 142.1 44.8 148.1 51.1 149.7 57.5 149 63.9 146.6L124.3 117.1C129.9 112.1 137.1 110.6 140.5 99.4 143.9 88.1 141.8 82.2 137.3 74.1L93.7 19.7C89.8 15.9 85.2 13.1 80.1 11.8 77.1 11 74.1 10.7 71.1 10.9z" id="path1539" style="fill:#4b6983;stroke-linejoin:round;stroke-opacity:0.5;stroke-width:3.8;stroke:#000"/>
    <path id="path831" d="M92.9 20.6L65.3 144.6 124 116.4C130.8 111.7 136.4 110.1 139.7 99.2 143 88.4 141 82.6 136.6 74.7L92.9 20.6z" style="fill:#7590ae;stroke-linejoin:round;stroke-width:2.5;stroke:#000"/>
    <path transform="matrix(0.939421,0.239581,-0.241243,0.932955,-13.93465,-17.0418)" d="M145.3 78.5A44.3 70.9 0 1 1 56.7 78.5 44.3 70.9 0 1 1 145.3 78.5z" id="path825" style="fill:#9db8d2;stroke-width:2.6;stroke:#000"/>
    <path transform="matrix(1.131177,0.288486,-0.265628,1.027252,-33.1397,-37.83387)" d="M131.1 85.6A28.3 56.7 0 1 1 74.4 85.6 28.3 56.7 0 1 1 131.1 85.6z" id="path4029" style="fill:#7590ae;stroke-opacity:0.5;stroke-width:3.4;stroke:#000"/>
    <path transform="matrix(1.131177,0.288486,-0.265628,1.027252,-33.1397,-37.83387)" d="M131.1 85.6A28.3 56.7 0 1 1 74.4 85.6 28.3 56.7 0 1 1 131.1 85.6z" id="path826" style="fill:#7590ae;stroke-width:2.3;stroke:#000"/>
    <path id="path2788" d="M62 23.5C62 23.5 66.6 42.8 67.6 66.4 68.5 90 62.5 96.3 60.2 100.7 57.9 105.1 52.4 119.6 37.8 133.1 49.5 142.8 80.4 138.7 93.3 77.3 98.2 38.3 82.4 15.1 62 23.5z" style="fill-opacity:0.5;fill:#fff"/>
    <path transform="matrix(0.939421,0.239581,-0.276433,1.069045,58.67646,19.94617)" d="M46.1 51.9A12.4 19.5 0 1 1 21.3 51.9 12.4 19.5 0 1 1 46.1 51.9z" id="path5272" style="fill:#314e6c;stroke-opacity:0.5;stroke-width:4.5;stroke:#000"/>
    <path transform="matrix(0.939421,0.239581,-0.276433,1.069045,58.67646,19.94617)" d="M46.1 51.9A12.4 19.5 0 1 1 21.3 51.9 12.4 19.5 0 1 1 46.1 51.9z" id="path827" style="fill:#314e6c;stroke-width:1;stroke:#000"/>
    <path transform="matrix(0.939421,0.239581,-0.241243,0.932955,-13.93465,-17.0418)" d="M145.3 78.5A44.3 70.9 0 1 1 56.7 78.5 44.3 70.9 0 1 1 145.3 78.5z" id="path922" style="fill:none;stroke-opacity:0.5;stroke-width:3.9;stroke:#000"/>
    <path id="path923" d="M60.8 21.1C39.7 18.2-3.2 95.2 35.1 136.3 5.6 101 31.8 29.7 60.8 21.1zM70.6 102.8C56.9 90.4 70.9 63.8 79.3 64.5 64.4 81.4 78 97.6 70.6 102.8z" fill="#fff"/>
    <path id="path1078" d="M98.3 109.6L80.8 134.9C77.8 139.1 129.4 118.6 137.9 101.8 142.4 84.9 109.3 72.6 109.3 72.6L98.3 109.6z" fill="url(#linearGradient1703)"/>
    <path id="path2074" d="M65.5 141.4C86.6 144.4 130.7 65 92.4 22.1 118.7 60.6 93.7 128.2 65.5 141.4z" class="s5"/>
    <path id="path5112" d="M63.8 139.6C84.8 142.6 127.7 65.6 89.5 24.4 118.9 59.7 92.8 131 63.8 139.6z" class="s5"/>
  </g>
  <path d="M82.8 95.5L89.6 95.5 97.9 116.8 98.1 116.8 106.7 95.5 113.5 95.5 100.7 122.9 94.6 122.9 82.8 95.5zM51.9 122.9L63.7 95.5 69.7 95.5 81.4 122.9 75.1 122.9 72.4 116.2 61 116.2 58.2 122.9 51.9 122.9zM66.7 102.2L62.7 111.9 70.7 111.9 66.7 102.2zM10.6 95.5L17 95.5 21.1 115.8 21.2 115.8 27.1 95.5 34.1 95.5 40 115.8 40.1 115.8 44.1 95.5 50.5 95.5 43.6 122.9 36.5 122.9 30.7 102.6 30.6 102.6 24.6 122.9 17.6 122.9 10.6 95.5z" id="path6379" style="fill:#fff;font-family:Trek;font-size:40;stroke-width:1"/>
  <path d="M83.5 96.1L90.3 96.1 98.6 117.5 98.8 117.5 107.3 96.1 114.1 96.1 101.4 123.5 95.3 123.5 83.5 96.1zM52.6 123.5L64.3 96.1 70.3 96.1 82.1 123.5 75.8 123.5 73.1 116.9 61.7 116.9 58.9 123.5 52.6 123.5zM67.4 102.8L63.3 112.6 71.3 112.6 67.4 102.8zM11.3 96.1L17.7 96.1 21.7 116.5 21.9 116.5 27.8 96.1 34.8 96.1 40.6 116.5 40.8 116.5 44.8 96.1 51.2 96.1 44.2 123.5 37.2 123.5 31.4 103.3 31.2 103.3 25.3 123.5 18.3 123.5 11.3 96.1z" id="path871" style="font-family:Trek;font-size:40;stroke-width:1"/>
  <path id="rect2063" d="M24.6 7.3L100.3 7.3C112 7.3 117.7 13 117.7 24.7 117.7 24.7 38.4 25.6 7.3 116L7.3 24.7C7.3 14.4 14.3 7.3 24.6 7.3z" fill="url(#linearGradient2830)"/>
</svg>
